src/assets/svg/action-delete.svg

<?xml version="1.0" encoding="UTF-8"?>
<svg width="16px" height="16px" viewBox="0 0 16 16" version="1.1" xmlns="http://www.w3.org/2000/svg" xmlns:xlink="http://www.w3.org/1999/xlink">
    <g id="导航栏+卡片" stroke="none" stroke-width="1" fill="none" fill-rule="evenodd">
        <g id="更多菜单" transform="translate(-1196.000000, -662.000000)" fill-rule="nonzero">
            <g id="编组-12" transform="translate(1176.000000, 56.000000)">
                <g id="编组-9" transform="translate(20.000000, 604.000000)">
                    <g id="newtrash-outlined" transform="translate(0.000000, 2.000000)">
                        <rect id="矩形" fill="#000000" opacity="0" x="0" y="0" width="16" height="16"></rect>
                        <path d="M13.625,4.25 C13.970178,4.25 14.25,4.52982203 14.25,4.875 C14.25,5.22017797 13.970178,5.5 13.625,5.5 L12.59,5.5 L12.205,12.246 C12.1443602,13.312879 11.300879,14.1687769 10.235,14.245 L10.083,14.25 L5.917,14.25 C4.79022695,14.2502374 3.85915976,13.3709449 3.795,12.246 L3.41,5.5 L2.375,5.5 C2.02982203,5.5 1.75,5.22017797 1.75,4.875 C1.75,4.52982203 2.02982203,4.25 2.375,4.25 L13.625,4.25 Z M11.338,5.5 L4.661,5.5 L5.043,12.175 C5.06701395,12.5979067 5.39050771,12.9428825 5.811,12.994 L5.917,13 L10.083,13 C10.5469919,13.0002279 10.9304862,12.6382338 10.957,12.175 L11.338,5.5 L11.338,5.5 Z M6.75,7 C7.095,7 7.375,7.28 7.375,7.625 L7.375,10.375 C7.375,10.720178 7.09517797,11 6.75,11 C6.40482203,11 6.125,10.720178 6.125,10.375 L6.125,7.625 C6.125,7.28 6.405,7 6.75,7 Z M9.25,7 C9.595,7 9.875,7.28 9.875,7.625 L9.875,10.375 C9.875,10.720178 9.59517797,11 9.25,11 C8.90482203,11 8.625,10.720178 8.625,10.375 L8.625,7.625 C8.625,7.28 8.905,7 9.25,7 Z M10.875,1.75 C11.220178,1.75 11.5,2.02982203 11.5,2.375 C11.5,2.72017797 11.220178,3 10.875,3 L5.125,3 C4.77982203,3 4.5,2.72017797 4.5,2.375 C4.5,2.02982203 4.77982203,1.75 5.125,1.75 L10.875,1.75 L10.875,1.75 Z" id="形状" fill="#262626"></path>
                    </g>
                </g>
            </g>
        </g>
    </g>
</svg>

<svg xmlns="http://www.w3.org/2000/svg" viewBox="0 0 16 16"><path fill="currentColor" fill-rule="nonzero" stroke="none" stroke-width="1" d="M13.625 4.25a.625.625 0 1 1 0 1.25H12.59l-.385 6.746a2.125 2.125 0 0 1-1.97 1.999l-.152.005H5.917a2.125 2.125 0 0 1-2.122-2.004L3.41 5.5H2.375a.625.625 0 1 1 0-1.25h11.25ZM11.338 5.5H4.661l.382 6.675a.875.875 0 0 0 .768.819l.106.006h4.166a.875.875 0 0 0 .874-.825l.381-6.675ZM6.75 7c.345 0 .625.28.625.625v2.75a.625.625 0 1 1-1.25 0v-2.75c0-.345.28-.625.625-.625Zm2.5 0c.345 0 .625.28.625.625v2.75a.625.625 0 1 1-1.25 0v-2.75c0-.345.28-.625.625-.625Zm1.625-5.25a.625.625 0 1 1 0 1.25h-5.75a.625.625 0 1 1 0-1.25h5.75Z" transform="translate(-1196 -662) translate(1176 56) translate(20 604) translate(0 2)"/></svg>
